assets/img/braze_icons/refresh-cw-03.svg

<svg fill="none" height="24" viewBox="0 0 24 24" width="24" xmlns="http://www.w3.org/2000/svg"><g fill="#801ed7"><path d="m4.92893 19.0711c-3.90524-3.9052-3.90524-10.23689 0-14.14213.79811-.79811 1.46629-1.4293 2.02471-1.92897h-2.95364c-.55228 0-1-.44772-1-1s.44772-1 1-1h6c.5523 0 1 .44772 1 1v6c0 .55229-.4477 1-1 1-.55228 0-1-.44772-1-1v-4.12566c-.61719.51218-1.47875 1.29074-2.65685 2.46884-3.1242 3.1242-3.1242 8.18952 0 11.31372 1.10799 1.108 2.45742 1.8218 3.87815 2.1441.5386.1222.8761.6579.7539 1.1965s-.6579.8761-1.19647.7539c-1.77787-.4034-3.46724-1.2977-4.8498-2.6803z"/><path d="m13.7787 4.19906c-.5386-.1222-.8761-.65788-.7539-1.19648.1222-.53859.6578-.87614 1.1964-.75394 1.7779.40338 3.4673 1.29776 4.8498 2.68032 3.9053 3.90524 3.9053 10.23684 0 14.14214-.7977.7978-1.4659 1.429-2.0246 1.9289h2.9536c.5523 0 1 .4477 1 1s-.4477 1-1 1h-6c-.5523 0-1-.4477-1-1v-6c0-.5523.4477-1 1-1s1 .4477 1 1v4.1257c.6164-.5115 1.4779-1.2899 2.6568-2.4688 3.1242-3.1242 3.1242-8.18954 0-11.31373-1.108-1.10799-2.4574-1.82176-3.8781-2.14411z"/></g></svg>

<svg width="24" height="24" viewBox="0 0 24 24" fill="none" xmlns="http://www.w3.org/2000/svg">
<path d="M4.92893 19.0711C1.02369 15.1659 1.02369 8.83421 4.92893 4.92897C5.72704 4.13086 6.39522 3.49967 6.95364 3L4 3C3.44772 3 3 2.55228 3 2C3 1.44772 3.44772 1 4 1L10 1C10.5523 1 11 1.44772 11 2V8C11 8.55229 10.5523 9 10 9C9.44772 9 9 8.55228 9 8L9 3.87434C8.38281 4.38652 7.52125 5.16508 6.34315 6.34318C3.21895 9.46738 3.21895 14.5327 6.34315 17.6569C7.45114 18.7649 8.80057 19.4787 10.2213 19.801C10.7599 19.9232 11.0974 20.4589 10.9752 20.9975C10.853 21.5361 10.3173 21.8736 9.77873 21.7514C8.00086 21.348 6.31149 20.4537 4.92893 19.0711Z" fill="#801ED7"/>
<path d="M13.7787 4.19906C13.2401 4.07686 12.9026 3.54118 13.0248 3.00258C13.147 2.46399 13.6826 2.12644 14.2212 2.24864C15.9991 2.65202 17.6885 3.5464 19.071 4.92896C22.9763 8.8342 22.9763 15.1658 19.071 19.0711C18.2733 19.8689 17.6051 20.5001 17.0464 21H20C20.5523 21 21 21.4477 21 22C21 22.5523 20.5523 23 20 23H14C13.4477 23 13 22.5523 13 22V16C13 15.4477 13.4477 15 14 15C14.5523 15 15 15.4477 15 16V20.1257C15.6164 19.6142 16.4779 18.8358 17.6568 17.6569C20.781 14.5327 20.781 9.46736 17.6568 6.34317C16.5488 5.23518 15.1994 4.52141 13.7787 4.19906Z" fill="#801ED7"/>
</svg>
